X:1
T:Title
%%score { ( 1 4 ) | ( 2 3 ) }
L:1/8
M:6/8
K:Bb
V:1 treble nm="Grand Piano"
V:4 treble 
V:2 bass 
V:3 bass 
V:1
 z3 z2[Q:1/4=81] G | G2 G EDE | G2 G E2 E/F/ | [B,EG]2 [B,EB] [B,DB]2 [B,DF] | %4
 [D_AB]3 [EGB]2 [EGB] | [EGc][EGc][EGc] _A2 A |[M:5/8] G^FG E2 |[M:1/8] E |[M:3/4] DG A B2 A | %9
 A3 [B,G]2 [DG] | G2 GE DE | G2 G E2 F | G2 [B,GB]B z [G_d] | [Gc]3 c2 c/c/ | %14
 [CFe]2 [CFe] [EFc]2 [E^Fc]/[EFd]/ | [EGc]2 [EGB] [B,EG]3 | C-[CF] [G,EG]E z [_A,EG] | %17
[M:5/8] [DF]3 [G,B,E]2 |] %18
V:2
 z3 z2 [E,B,E] | [E,B,E]2 [E,B,E] [E,C]2 [E,C] | [E,B,E]2 [E,B,E] [E,C]2 z/ E/ | E,2 G, F,2 B,, | %4
 B,,3 E,2 E, | C,C,C,[K:treble] [F,CF]2 [F,CF] |[M:5/8] DD[G,=B,D][K:bass] [C,C]2 | %7
[M:1/8] [_D,G,B,] |[M:3/4] [D,G,B,]2 [D,G,C] [D,G,D]2 [D,^F,C] | [D,^F,C]3 [G,,G,]2 [B,,G,] | %10
 [E,B,E]2 [E,B,E][E,C] [E,C][E,C] | [E,B,E]2 [E,B,E] [E,C]2 [E,=B,E] | %12
 [E,B,E]2 .E,2[K:treble] c[K:bass][=E,B,] | [F,B,]3[K:treble] [F,_A,F]2 F/F/ | %14
 _A,,2 A,, A,,2 =A,,/A,,/ | B,,2 B,, B,,3 | z _A, .C,2 FF,, |[M:5/8] z2 _A, E,2 |] %18
V:3
 x6 | x6 | z3 z2 [E,C] | x6 | x6 | x3[K:treble] x3 |[M:5/8] [G,=B,]2 z[K:bass] z2 |[M:1/8] x | %8
[M:3/4] x6 | x6 | x6 | x6 | z2 z .=E,3[K:treble][K:bass] | z2 z2[K:treble] z [F,_A,] | x6 | x6 | %16
 C,2 z .F,,3 |[M:5/8] B,,3 z2 |] %18
V:4
 x6 | x6 | x6 | x6 | x6 | x6 |[M:5/8] x5 |[M:1/8] x |[M:3/4] x6 | x6 | x6 | x6 | z2 z .[CG]3 | x6 | %14
 x6 | x6 | .[G,E]2 z .[_A,C]3 |[M:5/8] B,2 z z2 |] %18

